fill/svg/trash-2.svg

<svg xmlns="http://www.w3.org/2000/svg" viewBox="0 0 24 24"><g data-name="Layer 2"><g data-name="trash-2"><rect width="24" height="24" opacity="0"/><path d="M21 6h-5V4.33A2.42 2.42 0 0 0 13.5 2h-3A2.42 2.42 0 0 0 8 4.33V6H3a1 1 0 0 0 0 2h1v11a3 3 0 0 0 3 3h10a3 3 0 0 0 3-3V8h1a1 1 0 0 0 0-2zM10 16a1 1 0 0 1-2 0v-4a1 1 0 0 1 2 0zm0-11.67c0-.16.21-.33.5-.33h3c.29 0 .5.17.5.33V6h-4zM16 16a1 1 0 0 1-2 0v-4a1 1 0 0 1 2 0z"/></g></g></svg>

<svg xmlns="http://www.w3.org/2000/svg" viewBox="0 0 24 24"><defs><style>.cls-1{fill:#fff;opacity:0;}.cls-2{fill:#231f20;}</style></defs><title>trash-2</title><g id="Layer_2" data-name="Layer 2"><g id="trash-2"><g id="trash-2-2" data-name="trash-2"><rect class="cls-1" width="24" height="24"/><path class="cls-2" d="M21,6H16V4.33A2.42,2.42,0,0,0,13.5,2h-3A2.42,2.42,0,0,0,8,4.33V6H3A1,1,0,0,0,3,8H4V19a3,3,0,0,0,3,3H17a3,3,0,0,0,3-3V8h1a1,1,0,0,0,0-2ZM10,16a1,1,0,0,1-2,0V12a1,1,0,0,1,2,0ZM10,4.33c0-.16.21-.33.5-.33h3c.29,0,.5.17.5.33V6H10ZM16,16a1,1,0,0,1-2,0V12a1,1,0,0,1,2,0Z"/></g></g></g></svg>
